svg/map/road_fill.svg

<?xml version="1.0" encoding="UTF-8"?>
<svg width="24px" height="24px" viewBox="0 0 24 24" version="1.1" xmlns="http://www.w3.org/2000/svg" xmlns:xlink="http://www.w3.org/1999/xlink">
    <title>road_fill</title>
    <g id="页面-1" stroke="none" stroke-width="1" fill="none" fill-rule="evenodd">
        <g id="Map" transform="translate(0.000000, -144.000000)" fill-rule="nonzero">
            <g id="road_fill" transform="translate(0.000000, 144.000000)">
                 <path d="M24,0 L24,24 L0,24 L0,0 L24,0 Z M12.5934901,23.257841 L12.5819402,23.2595131 L12.5108777,23.2950439 L12.4918791,23.2987469 L12.4918791,23.2987469 L12.4767152,23.2950439 L12.4056548,23.2595131 C12.3958229,23.2563662 12.3870493,23.2590235 12.3821421,23.2649074 L12.3780323,23.275831 L12.360941,23.7031097 L12.3658947,23.7234994 L12.3769048,23.7357139 L12.4804777,23.8096931 L12.4953491,23.8136134 L12.4953491,23.8136134 L12.5071152,23.8096931 L12.6106902,23.7357139 L12.6232938,23.7196733 L12.6232938,23.7196733 L12.6266527,23.7031097 L12.609561,23.275831 C12.6075724,23.2657013 12.6010112,23.2592993 12.5934901,23.257841 L12.5934901,23.257841 Z M12.8583906,23.1452862 L12.8445485,23.1473072 L12.6598443,23.2396597 L12.6498822,23.2499052 L12.6498822,23.2499052 L12.6471943,23.2611114 L12.6650943,23.6906389 L12.6699349,23.7034178 L12.6699349,23.7034178 L12.678386,23.7104931 L12.8793402,23.8032389 C12.8914285,23.8068999 12.9022333,23.8029875 12.9078286,23.7952264 L12.9118235,23.7811639 L12.8776777,23.1665331 C12.8752882,23.1545897 12.8674102,23.1470016 12.8583906,23.1452862 L12.8583906,23.1452862 Z M12.1430473,23.1473072 C12.1332178,23.1423925 12.1221763,23.1452606 12.1156365,23.1525954 L12.1099173,23.1665331 L12.0757714,23.7811639 C12.0751323,23.7926639 12.0828099,23.8018602 12.0926481,23.8045676 L12.108256,23.8032389 L12.3092106,23.7104931 L12.3186497,23.7024347 L12.3186497,23.7024347 L12.3225043,23.6906389 L12.340401,23.2611114 L12.337245,23.2485176 L12.337245,23.2485176 L12.3277531,23.2396597 L12.1430473,23.1473072 Z" id="MingCute" fill-rule="nonzero"></path>
                <path d="M12.0001,16.5001 C12.7797706,16.5001 13.4205457,17.0950121 13.4932332,17.8556442 L13.5001,18.0001 L13.5001,20.0001 C13.5001,20.8285 12.8285,21.5001 12.0001,21.5001 C11.2204294,21.5001 10.5796543,20.9051879 10.5069668,20.1445558 L10.5001,20.0001 L10.5001,18.0001 C10.5001,17.1717 11.1717,16.5001 12.0001,16.5001 Z M8.36391,2.5449 C9.16761,2.74582 9.65625,3.56022 9.45532,4.36391 L5.45532,20.3639 C5.2544,21.1676 4.44,21.6562 3.63631,21.4553 C2.83261,21.2544 2.34397,20.44 2.5449,19.6363 L6.5449,3.63631 C6.74582,2.83261 7.56022,2.34397 8.36391,2.5449 Z M17.4553,3.63631 L21.4553,19.6363 C21.6562,20.44 21.1676,21.2544 20.3639,21.4553 C19.5602,21.6562 18.7458,21.1676 18.5449,20.3639 L14.5449,4.36391 C14.344,3.56022 14.8326,2.74582 15.6363,2.5449 C16.44,2.34397 17.2544,2.83261 17.4553,3.63631 Z M12.0001,9.50011 C12.8285,9.50011 13.5001,10.1717 13.5001,11.00011 L13.5001,13.00011 C13.5001,13.8285 12.8285,14.50011 12.0001,14.50011 C11.1717,14.50011 10.5001,13.8285 10.5001,13.00011 L10.5001,11.00011 C10.5001,10.1717 11.1717,9.50011 12.0001,9.50011 Z M12.0001,2.50011 C12.7797706,2.50011 13.4205457,3.09499554 13.4932332,3.85564954 L13.5001,4.00011 L13.5001,6.00011 C13.5001,6.82854 12.8285,7.50011 12.0001,7.50011 C11.2204294,7.50011 10.5796543,6.90522446 10.5069668,6.14457046 L10.5001,6.00011 L10.5001,4.00011 C10.5001,3.17168 11.1717,2.50011 12.0001,2.50011 Z" id="形状" fill="#09244B"></path>
            </g>
        </g>
    </g>
</svg>

<svg xmlns="http://www.w3.org/2000/svg" width="24" height="24"><g fill="none" fill-rule="nonzero"><path d="M24 0v24H0V0h24ZM12.593 23.258l-.011.002-.071.035-.02.004-.014-.004-.071-.035c-.01-.004-.019-.001-.024.005l-.004.01-.017.428.005.02.01.013.104.074.015.004.012-.004.104-.074.012-.016.004-.017-.017-.427c-.002-.01-.009-.017-.017-.018Zm.265-.113-.013.002-.185.093-.01.01-.003.011.018.43.005.012.008.007.201.093c.012.004.023 0 .029-.008l.004-.014-.034-.614c-.003-.012-.01-.02-.02-.022Zm-.715.002a.023.023 0 0 0-.027.006l-.006.014-.034.614c0 .012.007.02.017.024l.015-.002.201-.093.01-.008.004-.011.017-.43-.003-.012-.01-.01-.184-.092Z"/><path fill="#09244B" d="M12 16.5a1.5 1.5 0 0 1 1.493 1.356L13.5 18v2a1.5 1.5 0 0 1-2.993.145L10.5 20v-2a1.5 1.5 0 0 1 1.5-1.5ZM8.364 2.545a1.5 1.5 0 0 1 1.091 1.819l-4 16a1.5 1.5 0 0 1-2.91-.728l4-16a1.5 1.5 0 0 1 1.819-1.091Zm9.091 1.091 4 16a1.5 1.5 0 1 1-2.91.728l-4-16a1.5 1.5 0 0 1 2.91-.728ZM12 9.5a1.5 1.5 0 0 1 1.5 1.5v2a1.5 1.5 0 0 1-3 0v-2A1.5 1.5 0 0 1 12 9.5Zm0-7a1.5 1.5 0 0 1 1.493 1.356L13.5 4v2a1.5 1.5 0 0 1-2.993.145L10.5 6V4A1.5 1.5 0 0 1 12 2.5Z"/></g></svg>
